src/main/resources/icons/DartIcons/icons/dart_13.svg

<svg xmlns="http://www.w3.org/2000/svg" width="13" height="13" viewBox="0 0 13 13">
  <path fill="#6E6E6E" fill-rule="evenodd" d="M10.2757156,10.9061852 L9.81523747,12.2876197 L5.65714246,12.4 L3.59999996,10.1558446 L3.59999996,4.2304696 L10.2757156,10.9061852 Z M10.8090093,10.3081081 L4.1009012,3.59999996 L10.1558446,3.59999996 L12.4,5.65714264 L12.2876197,9.81523794 L10.8090093,10.3081081 Z M2.79999995,3.48095255 L2.79999995,8.86004658 L2.28571434,8.69142834 L0.600000024,6.78095224 L2.79999995,3.48095255 Z M8.86004618,2.79999995 L3.48095251,2.79999995 L6.78095198,0.600000024 L8.69142795,2.28571434 L8.86004618,2.79999995 Z"/>
</svg>

<svg xmlns="http://www.w3.org/2000/svg" width="13" height="13" viewBox="0 0 13 13"><rect id="frame" width="13" height="13" fill="none"/><path fill="#6E6E6E" fill-rule="evenodd" d="M10.276 10.906l-.46 1.382-4.159.112L3.6 10.156V4.23l6.676 6.676zm.533-.598L4.101 3.6h6.055L12.4 5.657l-.112 4.158-1.479.493zM2.8 3.481V8.86l-.514-.169L.6 6.781l2.2-3.3zM8.86 2.8H3.481l3.3-2.2 1.91 1.686.169.514z"/></svg>
